app/dist/common/images/boe-technology-gp.svg

<svg height="18" viewBox="0 0 18 18" width="18" xmlns="http://www.w3.org/2000/svg"><path d="m0 0h18v18h-18z" fill="#f0f3fa"/><path d="m4.65 6h-1.05v.71h1.09a.71.71 0 1 1 0 1.43h-1.09v.11-2.25h-.6v5h1.93a1.37 1.37 0 0 0 .59-2.62 1.34 1.34 0 0 0 -.87-2.38zm-1.05 4.29h1.39a.71.71 0 0 0 0-1.43h-1.39zm8.4-4.29h3v.71h-2.4v1.43h2.4v.71h-2.4v1.43h2.4v.72h-3zm-5 6v1h4v-1zm4.5-3.5a2.5 2.5 0 1 1 -5 0 2.5 2.5 0 0 1 5 0zm-.67 0a1.83 1.83 0 1 1 -3.66 0 1.83 1.83 0 0 1 3.66 0z" fill-rule="evenodd"/></svg>

<!-- by TradingView --><svg width="18" height="18" viewBox="0 0 18 18" xmlns="http://www.w3.org/2000/svg"><path fill="#F0F3FA" d="M0 0h18v18H0z"/><path fill-rule="evenodd" d="M4.65 6H3.6v.71h1.09a.71.71 0 1 1 0 1.43H3.6v.11V6H3v5h1.93a1.37 1.37 0 0 0 .59-2.62A1.34 1.34 0 0 0 4.65 6ZM3.6 10.29h1.39a.71.71 0 0 0 0-1.43H3.6v1.43ZM12 6h3v.71h-2.4v1.43H15v.71h-2.4v1.43H15V11h-3V6Zm-5 6v1h4v-1H7Zm4.5-3.5a2.5 2.5 0 1 1-5 0 2.5 2.5 0 0 1 5 0Zm-.67 0a1.83 1.83 0 1 1-3.66 0 1.83 1.83 0 0 1 3.66 0Z"/></svg>
